!!!!SEGMENT: Fss3007-O_passi_sparsi.krn
!!!id: Fss3007
!!!AGN: Madrigal
!!!SCT: Seay (1978)
!!!voices: 4
!!!COM: Sebastiano Festa
!!!OTL: O passi sparsi
**kern	**kern	**kern	**kern
*part4	*part3	*part2	*part1
*staff4	*staff3	*staff2	*staff1
*I"Bassus	*I"Tenor	*I"Altus	*I"Superius
*I'B	*I'T	*I'A	*I'S
*clefF4	*clefGv2	*clefGv2	*clefG2
*k[]	*k[]	*k[]	*k[]
*C:	*C:	*C:	*C:
*M2/1	*M2/1	*M2/1	*M2/1
*met(C|)	*met(C|)	*met(C|)	*met(C|)
=1	=1	=1	=1
0AA	0A	0c	0e
=2	=2	=2	=2
2E	2B	2e	2g
2G	2B	2d	2g
2F	2c	2f	2a
2C	2e	2g	2cc
=3	=3	=3	=3
2G	2d	2g	2b
2A	2c	2e	2.a
1E	1B	1e	.
.	.	.	4f
.	.	.	4g
.	.	.	4a
=4	=4	=4	=4
1E	1B	1e	2g
.	.	.	2a
2AA	2A	2e	2a
2AA	2A	2e	2a
=5	=5	=5	=5
2r	2r	2r	2r
2E	2B	2e	2g
2A	4c	2.e	2cc
.	4A	.	.
2A	4B	.	2cc
.	4c	4f	.
=6	=6	=6	=6
2G	4d	4g	2b
.	2e	4G	.
2F	.	2A	2a
.	4d	.	.
1E	1e	2B	1g
.	.	2B	.
=7	=7	=7	=7
2G	2d	2B	2g
2A	2c	2.c	1e
1F	1A	.	.
.	.	4B	.
.	.	2A	2d
=8	=8	=8	=8
2E	2B	2G	2e
2E	2B	2G	2e
2r	2r	2r	2r
2E	2B	2e	2g
=9	=9	=9	=9
2A	4c	2.e	2cc
.	4A	.	.
2A	4B	.	2cc
.	4c	4f	.
2G	4d	4g	2b
.	2e	4G	.
2F	.	2A	2a
.	4d	.	.
=10	=10	=10	=10
1E	1e	2B	1g
.	.	2B	.
2G	2d	2B	2g
2A	2c	[2c	[2e
=11	=11	=11	=11
1F	1A	4c]	2e]
.	.	4B	.
.	.	2A	2d
2E	2B	2G	2e
2E	2B	2G	2e
=12	=12	=12	=12
2r	1A	1c	2r
2A	.	.	2e
2G	2E	2B	2e
2G	2E	2B	2e
=13	=13	=13	=13
2A	2A	2c	2e
2A	2c	2A	2e
2E	2B	2A	1e
2E	2c	2G	.
=14	=14	=14	=14
1D	2.d	1A	2f
.	.	.	1a
.	4c	.	.
1E	4B	1e	.
.	4A	.	.
.	2B	.	2g#i
=15	=15	=15	=15
1AA	1A	1c	1a
1AA	1A	1c	1a
=16||	=16||	=16||	=16||
0AA	0A	0c	0e
=17	=17	=17	=17
2E	2B	2e	2g
2G	2B	2d	2g
2F	2c	2f	2a
2C	2e	2g	2cc
=18	=18	=18	=18
2G	2d	2g	2b
2A	2c	2e	2.a
1E	1B	1e	.
.	.	.	4f
.	.	.	4g
.	.	.	4a
=19	=19	=19	=19
1E	1B	1e	2g
.	.	.	2a
2AA	2A	2e	2a
2AA	2A	2e	2a
=20	=20	=20	=20
2r	2r	2r	2r
2E	2B	2e	2g
2A	4c	2.e	2cc
.	4A	.	.
2A	4B	.	2cc
.	4c	4f	.
=21	=21	=21	=21
2G	4d	4g	2b
.	2e	4G	.
2F	.	2A	2a
.	4d	.	.
1E	1e	2B	1g
.	.	2B	.
=22	=22	=22	=22
2G	2d	2B	2g
2A	2c	2.c	1e
1F	1A	.	.
.	.	4B	.
.	.	2A	2d
=23	=23	=23	=23
2E	2B	2G	2e
2E	2B	2G	2e
2r	2r	2r	2r
2E	2B	2e	2g
=24	=24	=24	=24
2A	4c	2.e	2cc
.	4A	.	.
2A	4B	.	2cc
.	4c	4f	.
2G	4d	4g	2b
.	2e	4G	.
2F	.	2A	2a
.	4d	.	.
=25	=25	=25	=25
1E	1e	2B	1g
.	.	2B	.
2G	2d	2B	2g
2A	2c	[2c	[2e
=26	=26	=26	=26
1F	1A	4c]	2e]
.	.	4B	.
.	.	2A	2d
2E	2B	2G	2e
2E	2B	2G	2e
=27	=27	=27	=27
2r	1A	1c	2r
2A	.	.	2e
2G	2E	2B	2e
2G	2E	2B	2e
=28	=28	=28	=28
2A	2A	2c	2e
2A	2c	2A	2e
2E	2B	2A	1e
2E	2c	2G	.
=29	=29	=29	=29
1D	2.d	1A	2f
.	.	.	1a
.	4c	.	.
1E	4B	1e	.
.	4A	.	.
.	2B	.	2g#i
=30	=30	=30	=30
1AA	1A	1c	1a
1AA	1A	1c	1a
=31||	=31||	=31||	=31||
1.C	2G	1.g	1.ee
.	1c	.	.
2GG	2B	2g	2dd
=32	=32	=32	=32
1AA	1A	1e	1cc
2E	2G	2e	2b
2F	2A	4c	2a
.	.	4d	.
=33	=33	=33	=33
2E	2B	2e	1g
2C	2c	2e	.
2D	2A	2d	2f
2E	2G	[2B	[2e
=34	=34	=34	=34
1F	1A	4B]	2e]
.	.	4A	.
.	.	1a	2d
1E	1B	.	1e
.	.	2g#i	.
=35	=35	=35	=35
1AA	1c	1a	2e
.	.	.	2e
2E	2B	2r	2g
2C	2e	2e	2g
=36	=36	=36	=36
0D	0d	1a	0f
.	.	1a	.
=37	=37	=37	=37
1E	2B	2g	1e
.	2c	2g	.
1D	2.d	2f	1a
.	.	2f	.
.	4c	.	.
=38	=38	=38	=38
2E	2B	2e	2g
2F	2A	2d	2a
2E	1B	1e	2a
2E	.	.	2g
=39	=39	=39	=39
2F	2A	2c	2a
2D	2d	2f	2a
2E	2B	2e	2g
2C	2c	2e	[2g
=40	=40	=40	=40
1D	2.A	0d	2g]
.	.	.	2f
.	8GL	.	.
.	8AJ	.	.
1G	4B	.	1g
.	2c	.	.
.	4B	.	.
=41	=41	=41	=41
1C	2c	1g	1e
.	2e	.	.
1F	2.f	1c	1a
.	4e	.	.
=42	=42	=42	=42
2G	2d	2g	2b
2A	2c	2f	2cc
2G	1d	2g	2cc
2G	.	2g	2b
=43	=43	=43	=43
2C	2c	2e	2cc
2C	2c	2e	2cc
2r	2r	2r	2r
2G	2d	2g	2b
=44	=44	=44	=44
2G	2d	2g	2b
2G	2d	2g	2b
2G	2d	2g	2b
2E	2e	2g	2b
=45	=45	=45	=45
2A	2e	2.a	2.cc
2A	2e	.	.
.	.	4g	4b
2D	2d	2f	2a
2D	2d	2f	2a
=46	=46	=46	=46
2E	2B	2e	2g
2E	2B	2e	2g
2r	2r	2r	2r
2E	2B	2e	2g
=47	=47	=47	=47
2E	2B	2e	2g
2E	2B	2e	2g
2A	2c	2e	2a
2A	2c	2f	2a
=48	=48	=48	=48
1.G	1.d	1.g	1.b
2G	2d	2g	2b
=49	=49	=49	=49
2D	2d	2f	2a
2E	1B	1e	2g
1F	.	.	1a
.	2A	2d	.
=50	=50	=50	=50
0E	0B	0e	0g
=51	=51	=51	=51
0C	0e	0g	0cc
=52	=52	=52	=52
2G	2d	2g	2b
2G	2d	2g	2b
2A	2c	2e	2a
2A	2c	2e	2a
=53	=53	=53	=53
1.E	1.B	1.e	0g
2E	2B	2e	.
=54	=54	=54	=54
2A	2c	2e	2a
2F	2A	2d	1a
1E	1B	1e	.
.	.	.	2g#i
=55	=55	=55	=55
1AA	2A	1e	2a
.	2A	.	2a
[1F	[1c	[1f	[1a
=56	=56	=56	=56
1F]	1c]	1f]	1a]
2G	2B	2d	2g
2C	2c	2e	2g
=57	=57	=57	=57
2G	2c	2d	2g
2G	2B	2d	2g
2C	2c	2c	2e
2C	2G	2e	2g
=58	=58	=58	=58
2D	4A	2d	2f
.	4B	.	.
2C	1c	2g	2e
[1G	.	[1g	[1d
.	4B	.	.
.	4A	.	.
=59	=59	=59	=59
1G]	1B	1g]	1d]
1C	1G	1e	1c
=60	=60	=60	=60
0C	0c	0g	0cc
=61	=61	=61	=61
2G	2B	2g	2b
2G	2B	2g	2b
2A	2c	2e	2a
2A	2c	2f	2f
=62	=62	=62	=62
0G	0d	0g	0g
=63	=63	=63	=63
1r	1r	1r	1r
2r	2r	2r	2r
2A	2c	2e	[2cc
=64	=64	=64	=64
2A	2c	2e	2cc]
2D	2d	2f	1a
1E	1B	1e	.
.	.	.	2g#i
=65	=65	=65	=65
1AA	1A	1e	2a
.	.	.	2a
2r	2r	2r	2r
2AA	2c	2e	2a
=66	=66	=66	=66
2D	2d	2f	2a
2C	2e	2e	2a
1D	1f	1d	1a
=67	=67	=67	=67
00AAl	00el	00cl	00al
==	==	==	==
*-	*-	*-	*-
!!!system-decoration: [*]
!!!RDF**kern: i = editorial accidental
!!!RDF**kern: l = terminal long
!!!ENC: Benjamin Ory
!!!END: 2021/9/23
!!!EED: Benjamin Ory
!!!EEV: 2021/09/23
!!!YEC: Copyright 2021 Benjamin Ory, All Rights Reserved
!!!ONB: Translated from MusicXML on 2021/09/23
